assets/images/shipping/truck.svg

<svg width="81" height="46" viewBox="0 0 81 46" fill="none" xmlns="http://www.w3.org/2000/svg">
<path fill-rule="evenodd" clip-rule="evenodd" d="M12.5665 35.5563L12.5922 35.5559L12.6233 35.5556L12.6479 35.5556C15.0985 35.5556 17.0923 37.5492 17.0923 40C17.0923 42.4508 15.0985 44.4445 12.6479 44.4445C10.2123 44.4445 8.2278 42.475 8.20368 40.0448C8.20464 40.03 8.20513 40.0151 8.20513 40C8.20513 37.5882 10.136 35.6191 12.533 35.5571L12.5665 35.5563ZM0.683761 40.6838H6.87592C7.21535 43.5675 9.6744 45.812 12.6479 45.812C15.6214 45.812 18.0805 43.5675 18.4199 40.6838H48.547L48.5516 40.6837H58.7972L58.8049 40.6838H63.2861C63.6255 43.5675 66.0846 45.812 69.0581 45.812C72.0316 45.812 74.4906 43.5675 74.83 40.6838H79.3177C79.6953 40.6838 80.0014 40.3776 80.0014 40V27.9773C80.0014 21.0337 74.3524 15.3846 67.4088 15.3846H58.8049C58.4272 15.3846 58.1211 15.6908 58.1211 16.0684V39.3162H49.2308V0.683761C49.2308 0.306154 48.9246 0 48.547 0H0.683761C0.306154 0 0 0.306154 0 0.683761V40C0 40.3776 0.306154 40.6838 0.683761 40.6838ZM47.8633 39.3162V1.36752H1.36752V39.3162H6.87592C7.21334 36.4498 9.64501 34.215 12.5945 34.1883L12.6496 34.188C15.6231 34.188 18.0822 36.4325 18.4215 39.3162H46.8309L46.8361 39.3162L47.8633 39.3162ZM65.6134 30.4273H74.1605C74.5381 30.4273 74.8442 30.1212 74.8442 29.7436C74.8442 24.6538 70.7032 20.5128 65.6134 20.5128C65.2358 20.5128 64.9297 20.819 64.9297 21.1966V29.7436C64.9297 30.1212 65.2358 30.4273 65.6134 30.4273ZM73.4473 29.0598H66.2972V21.9097C70.089 22.2378 73.1193 25.268 73.4473 29.0598ZM64.6168 40C64.6168 40.0209 64.6159 40.0416 64.614 40.0621C64.6473 42.4843 66.628 44.4445 69.0581 44.4445C71.5088 44.4445 73.5025 42.4508 73.5025 40C73.5025 37.557 71.5214 35.5681 69.0812 35.5556L69.0613 35.5556C66.6105 35.5556 64.6168 37.5493 64.6168 40ZM59.4886 39.3163H63.2861H63.2893C63.6281 36.4325 66.0872 34.1881 69.0613 34.1881C72.0353 34.1881 74.4939 36.4325 74.8332 39.3163H78.6339V27.9773C78.6339 21.7877 73.5984 16.7522 67.4088 16.7522H59.4886V39.3163ZM34.87 13.3333H16.0666C15.689 13.3333 15.3828 13.0272 15.3828 12.6496C15.3828 12.272 15.689 11.9658 16.0666 11.9658H34.87C35.2476 11.9658 35.5538 12.272 35.5538 12.6496C35.5538 13.0272 35.2476 13.3333 34.87 13.3333ZM12.6496 23.5897H31.453C31.8306 23.5897 32.1368 23.2836 32.1368 22.906C32.1368 22.5284 31.8306 22.2222 31.453 22.2222H12.6496C12.272 22.2222 11.9658 22.5284 11.9658 22.906C11.9658 23.2836 12.272 23.5897 12.6496 23.5897Z" fill="#0029FF"/>
</svg>

<svg width="81" height="46" fill="none" xmlns="http://www.w3.org/2000/svg"><path fill-rule="evenodd" clip-rule="evenodd" d="M12.566 35.556h.083A4.45 4.45 0 0117.092 40a4.45 4.45 0 01-4.444 4.444A4.45 4.45 0 018.205 40a4.45 4.45 0 014.328-4.443h.034zM.684 40.684h6.192a5.82 5.82 0 005.772 5.128 5.82 5.82 0 005.772-5.128h44.866a5.82 5.82 0 005.772 5.128 5.82 5.82 0 005.772-5.128h4.488A.684.684 0 0080 40V27.977c0-6.943-5.649-12.592-12.592-12.592h-8.604a.684.684 0 00-.684.683v23.248h-8.89V.684A.684.684 0 0048.547 0H.684A.684.684 0 000 .684V40c0 .378.306.684.684.684zm47.18-1.368V1.368H1.367v37.948h5.508a5.82 5.82 0 015.718-5.128h.056a5.82 5.82 0 015.772 5.128h29.441zm17.75-8.889h8.546a.684.684 0 00.684-.683c0-5.09-4.14-9.231-9.23-9.231a.684.684 0 00-.684.684v8.547c0 .377.306.683.683.683zm7.833-1.367h-7.15v-7.15a7.876 7.876 0 017.15 7.15zM64.617 40c0 .02-.001.042-.003.062a4.45 4.45 0 004.444 4.383A4.45 4.45 0 0073.502 40a4.45 4.45 0 00-4.42-4.444h-.02A4.45 4.45 0 0064.616 40zm-5.128-.684h3.8a5.82 5.82 0 015.772-5.128 5.82 5.82 0 015.772 5.128h3.8V27.977c0-6.19-5.035-11.225-11.224-11.225h-7.92v22.564zM34.87 13.333H16.067a.684.684 0 110-1.367H34.87a.684.684 0 010 1.367zM12.65 23.59h18.803a.684.684 0 100-1.368H12.65a.684.684 0 000 1.368z" fill="#0029FF"/></svg>
